X: 26486
T: Michael Gaffney's
R: barndance
M: 4/4
K: Dmajor
(3fed A2 (3fed (3ABc|(3dcd b>f a4|(3gfe B2 (3gfe B2|c>d (3edc A4|
(3fed A2 (3fed A>c|(3dcd b>f a3 f|g2 f>e B2 c2|e>dB>c d2:|
d>fe>d B>AF>A|(3dcd e>d B4|(3dcd e>d B>AF>A|(3BAB (3cBc d2 (3ABc|
d2 e>d B>A (3FGA|d2 (3edc B3 c|(3dcd e>d B>A (3FGA|.B2 .c2 .d2||

